X: 1363
T: An Raibh Tú Ag An gCarraig?
R: waltz
M: 3/4
K: Eminor
ed|B2B2 ^c^d|e4 ef|g4 fe|{f}ed B2B2|
g4 ag|f4b2|e>d B2 de|{g}f2He2||
fe|d2B2^c2|d4 gf|e2 dcBA|B2G2 E>F|
G2G2 BG|F2F2 AF|E2 E2 =DE|{G}F2E2||

